X: 29
M:2/4
L:1/16
K:G
ud>c|B>G((3GFG) D>G((3GFG)|B>Gd>B g>dB>d|\
c>A((3"4"A"3"^GA) F>A((3AGA)|c>"4"ed>c B>cA>c|
c>ed>c B>cA>B|G2B2G2:|
|:ud>c|B>d((3d^cd) B>d((3dcd)|B>de>f g>dc>B|\
c>e((3"4"e^de) c>e((3ede)|c>ea>g f>ed>c|
g>de>c B>cA>B|G2B2G2:|


